public/icons/SciKitLearn-Light.svg

<svg xmlns="http://www.w3.org/2000/svg" width="256" height="256" fill="none"><rect width="256" height="256" fill="#F4F2ED" rx="60"/><g clip-path="url(#a)"><path fill="#F89939" d="M181.405 165.654c24.426-24.424 28.486-59.964 9.067-79.38-19.416-19.416-54.954-15.357-79.378 9.066-24.425 24.424-17.36 71.086-9.066 79.381 6.702 6.702 54.954 15.357 79.377-9.067"/><path fill="#3499CD" d="M81.182 130.361c-14.17-14.169-34.792-16.528-46.06-5.261-11.266 11.267-8.911 31.891 5.262 46.059 14.173 14.174 41.248 10.075 46.057 5.261 3.892-3.885 8.915-31.887-5.26-46.059"/><path fill="#010101" d="M130.073 159.668q-3.755 3.457-6.586 5.097-2.832 1.644-5.401 1.644-2.955 0-4.765-2.292c-1.207-1.53-1.808-3.581-1.808-6.161q0-5.801 2.514-13.92 2.512-8.124 6.103-14.973l7.017-2.597q.33-.111.498-.112c.532 0 .972.393 1.31 1.174q.512 1.177.512 3.164.001 5.636-2.597 10.911-2.598 5.277-8.121 11.27-.222 2.873-.221 3.95c0 1.604.294 2.872.883 3.812q.885 1.41 2.348 1.408 1.493.002 3.178-1.074 1.682-1.078 5.136-4.477zm-10.578-10.799a33.7 33.7 0 0 0 5.691-8.741q2.18-4.841 2.18-8.329c0-.678-.1-1.229-.302-1.643q-.304-.623-.774-.623-1.02 0-2.969 5.089t-3.826 14.247"/><path fill="#010101" d="M150.737 159.667q-3.507 3.458-6.298 5.098-2.788 1.643-6.159 1.643-3.757 0-6.066-2.401-2.304-2.406-2.304-6.327-.002-5.855 4.063-10.593 4.058-4.739 9.003-4.738 2.568 0 4.116 1.327t1.547 3.48q0 5.718-12.154 9.281 1.104 5.385 5.773 5.387 1.823 0 3.479-.979 1.66-.983 5-4.352zm-14.475-5.109q7.07-1.989 7.072-7.347-.001-2.651-1.933-2.651-1.823-.001-3.479 2.776-1.661 2.774-1.66 7.222"/><path fill="#010101" d="M180.238 159.668q-4.421 4.198-6.325 5.472-1.906 1.27-3.647 1.269-4.364 0-4.116-7.706-2.762 3.948-5.097 5.83-2.332 1.877-4.821 1.876-2.427 0-4.129-2.277-1.699-2.279-1.697-5.595 0-4.142 2.276-7.901 2.281-3.756 5.843-6.075 3.564-2.321 6.297-2.322 3.454.001 4.836 3.176l5.645-3.119h1.55l-2.439 8.092q-1.879 6.106-1.88 8.371-.001 2.375 1.685 2.375 1.073 0 2.373-1.147 1.298-1.147 3.644-3.495v3.176zm-20.22 1.521q2.76 0 5.209-4.709 2.445-4.712 2.444-8.69-.001-1.546-.69-2.416-.693-.872-1.851-.87-2.765 0-5.234 4.696-2.473 4.698-2.474 8.644 0 1.494.733 2.419.729.927 1.863.926"/><path fill="#010101" d="M200.873 159.668q-6.935 6.795-10.691 6.796-1.686 0-2.845-1.42-1.159-1.424-1.16-3.524.001-3.894 4.172-10.441-2.045 1.049-4.475 1.463-1.797 3.316-5.636 7.125h-.634v-2.483a36 36 0 0 0 3.895-4.808q-2.378-1.051-2.376-3.119-.002-2.128 1.451-4.548 1.449-2.414 3.991-2.414 2.155-.001 2.154 2.208 0 1.74-1.244 4.973c3.056-.333 5.727-2.669 8.012-7.017l2.512-.111-2.569 7.072q-1.601 4.476-2.07 6.091-.47 1.615-.47 2.859 0 1.163.538 1.85c.359.464.843.692 1.451.692q.994-.002 1.906-.675.91-.681 4.089-3.745v3.176z"/><path fill="#010101" d="M228 159.668q-6.382 6.743-10.939 6.741-1.851 0-2.984-1.298t-1.133-3.479q0-2.957 2.432-9.032 1.298-3.262 1.299-4.144-.001-.885-.69-.885-.388.001-1.023.386-.582.389-1.355 1.079-.69.635-1.547 1.544a44 44 0 0 0-1.6 1.769l-1.549 1.797q-1.02 1.242-1.269 2.623a42 42 0 0 0-.554 4.312q-.084 1.46-.083 3.95l-6.105 1.434q-.303-3.73-.305-5.551 0-4.448 1.038-8.425c.69-2.654 1.798-5.635 3.328-8.951l6.739-1.298q-2.126 5.718-2.789 9.004 4.528-5.054 7.189-7.002 2.66-1.947 4.729-1.946 1.407 0 2.344 1.061.94 1.065.938 2.661 0 2.65-2.373 8.729-1.631 4.168-1.631 5.416 0 1.663 1.356 1.663 2.021 0 6.537-5.332z"/><path fill="#fff" d="M140.524 128.723q.066.732.366 1.122.553.707 1.918.707.813 0 1.431-.35.617-.357.617-1.097 0-.56-.495-.853-.318-.178-1.252-.415l-1.162-.292q-1.114-.276-1.642-.618-.942-.593-.943-1.642 0-1.235.886-1.999.894-.764 2.398-.764 1.966 0 2.836 1.154.544.732.528 1.577h-1.381a1.7 1.7 0 0 0-.35-.902q-.504-.577-1.747-.577-.83 0-1.26.317a1 1 0 0 0-.422.837q0 .569.56.91.326.204.959.358l.968.235q1.576.383 2.113.74.853.561.853 1.764 0 1.162-.886 2.007-.878.845-2.682.845-1.942 0-2.755-.877-.804-.886-.862-2.187zm10.81-6.225q1.47 0 2.389.715.927.716 1.114 2.463h-1.423q-.13-.805-.593-1.333-.464-.537-1.487-.537-1.398 0-2 1.366-.39.885-.39 2.186 0 1.308.553 2.202.552.894 1.739.894.91 0 1.439-.552.536-.56.739-1.528h1.423q-.244 1.73-1.219 2.536-.976.796-2.496.796-1.706 0-2.722-1.243-1.016-1.252-1.016-3.121 0-2.293 1.113-3.568 1.114-1.276 2.837-1.276m4.966.292h1.487v8.664H156.3zm0-3.275h1.487v1.658H156.3zm3.673 0h1.406v6.933l3.755-3.698h1.869l-3.332 3.259 3.519 5.445h-1.869l-2.715-4.389-1.227 1.122v3.267h-1.406zm8.355 3.275h1.487v8.664h-1.487zm0-3.275h1.487v1.658h-1.487zm3.999.805h1.479v2.43h1.39v1.194h-1.39v5.681q0 .456.309.61.17.09.568.089h.228q.121-.007.285-.024v1.154a3.3 3.3 0 0 1-.529.106 5 5 0 0 1-.585.032q-1.024 0-1.39-.52-.365-.528-.365-1.365v-5.763h-1.179v-1.194h1.179z"/></g><defs><clipPath id="a"><path fill="#fff" d="M28 74h200v107.86H28z"/></clipPath></defs></svg>

<svg width="256" height="256" viewBox="0 0 256 256" fill="none" xmlns="http://www.w3.org/2000/svg">
<rect width="256" height="256" rx="60" fill="#F4F2ED"/>
<g clip-path="url(#clip0_983_177)">
<path d="M181.405 165.654C205.831 141.23 209.891 105.69 190.472 86.2731C171.056 66.8579 135.518 70.9168 111.094 95.3399C86.6691 119.764 93.7346 166.426 102.028 174.721C108.73 181.423 156.982 190.078 181.405 165.654Z" fill="#F89939"/>
<path d="M81.1816 130.361C67.0116 116.192 46.3899 113.833 35.1213 125.1C23.8556 136.367 26.211 156.991 40.3838 171.159C54.5567 185.333 81.6323 181.234 86.4412 176.42C90.3327 172.535 95.3558 144.533 81.1816 130.361Z" fill="#3499CD"/>
<path d="M130.073 159.668C127.57 161.972 125.374 163.672 123.487 164.765C121.599 165.861 119.799 166.409 118.086 166.409C116.116 166.409 114.527 165.645 113.321 164.117C112.114 162.587 111.513 160.536 111.513 157.956C111.513 154.089 112.351 149.448 114.027 144.036C115.7 138.62 117.737 133.629 120.13 129.063L127.147 126.466C127.367 126.392 127.534 126.354 127.645 126.354C128.177 126.354 128.617 126.747 128.955 127.528C129.296 128.313 129.467 129.367 129.467 130.692C129.467 134.449 128.603 138.086 126.87 141.603C125.137 145.122 122.432 148.877 118.749 152.873C118.601 154.789 118.528 156.104 118.528 156.823C118.528 158.427 118.822 159.695 119.411 160.635C120.001 161.576 120.783 162.043 121.759 162.043C122.755 162.043 123.813 161.687 124.937 160.969C126.058 160.249 127.771 158.759 130.073 156.492V159.668H130.073ZM119.495 148.869C121.833 146.269 123.732 143.354 125.186 140.128C126.64 136.9 127.366 134.125 127.366 131.799C127.366 131.121 127.266 130.57 127.064 130.156C126.862 129.741 126.602 129.533 126.29 129.533C125.611 129.533 124.62 131.229 123.321 134.622C122.022 138.015 120.747 142.764 119.495 148.869Z" fill="#010101"/>
<path d="M150.737 159.667C148.399 161.972 146.3 163.672 144.439 164.765C142.579 165.861 140.528 166.408 138.28 166.408C135.775 166.408 133.754 165.607 132.214 164.007C130.678 162.402 129.91 160.295 129.91 157.68C129.91 153.777 131.262 150.245 133.973 147.087C136.677 143.927 139.68 142.349 142.976 142.349C144.689 142.349 146.059 142.792 147.092 143.676C148.123 144.561 148.639 145.719 148.639 147.156C148.639 150.969 144.588 154.061 136.485 156.437C137.221 160.026 139.145 161.824 142.258 161.824C143.474 161.824 144.633 161.497 145.737 160.845C146.844 160.19 148.509 158.738 150.737 156.493L150.737 159.667ZM136.262 154.558C140.975 153.231 143.334 150.784 143.334 147.211C143.334 145.443 142.688 144.56 141.401 144.56C140.185 144.56 139.026 145.484 137.922 147.336C136.814 149.186 136.262 151.592 136.262 154.558Z" fill="#010101"/>
<path d="M180.238 159.668C177.291 162.466 175.182 164.292 173.913 165.14C172.642 165.987 171.427 166.409 170.266 166.409C167.356 166.409 165.985 163.841 166.15 158.703C164.309 161.335 162.609 163.278 161.053 164.533C159.498 165.785 157.892 166.409 156.232 166.409C154.614 166.409 153.238 165.651 152.103 164.132C150.969 162.612 150.406 160.749 150.406 158.537C150.406 155.776 151.164 153.142 152.682 150.636C154.203 148.131 156.15 146.108 158.525 144.561C160.9 143.014 163.001 142.239 164.822 142.239C167.125 142.239 168.737 143.299 169.658 145.415L175.303 142.296H176.853L174.414 150.388C173.162 154.459 172.534 157.249 172.534 158.759C172.534 160.342 173.094 161.134 174.219 161.134C174.934 161.134 175.726 160.752 176.592 159.987C177.458 159.222 178.671 158.057 180.236 156.492V159.668H180.238ZM160.018 161.189C161.859 161.189 163.594 159.619 165.227 156.48C166.857 153.339 167.671 150.441 167.671 147.79C167.671 146.76 167.439 145.953 166.981 145.374C166.519 144.792 165.902 144.504 165.13 144.504C163.288 144.504 161.541 146.069 159.896 149.2C158.248 152.332 157.422 155.213 157.422 157.844C157.422 158.84 157.667 159.646 158.155 160.263C158.642 160.881 159.261 161.189 160.018 161.189Z" fill="#010101"/>
<path d="M200.873 159.668C196.25 164.197 192.686 166.464 190.182 166.464C189.058 166.464 188.109 165.99 187.337 165.044C186.565 164.095 186.177 162.92 186.177 161.52C186.177 158.923 187.569 155.444 190.349 151.079C188.985 151.779 187.495 152.265 185.874 152.542C184.677 154.752 182.797 157.128 180.238 159.667H179.604V157.184C181.04 155.692 182.339 154.089 183.499 152.376C181.913 151.676 181.123 150.635 181.123 149.257C181.123 147.837 181.604 146.323 182.574 144.709C183.54 143.1 184.87 142.295 186.565 142.295C188.002 142.295 188.719 143.029 188.719 144.503C188.719 145.664 188.305 147.32 187.475 149.476C190.531 149.143 193.202 146.807 195.487 142.459L197.999 142.348L195.43 149.42C194.363 152.403 193.672 154.435 193.36 155.511C193.047 156.587 192.89 157.542 192.89 158.37C192.89 159.144 193.07 159.763 193.428 160.22C193.787 160.684 194.271 160.912 194.879 160.912C195.541 160.912 196.177 160.685 196.785 160.237C197.392 159.782 198.755 158.535 200.874 156.492V159.668H200.873Z" fill="#010101"/>
<path d="M228 159.668C223.746 164.164 220.098 166.409 217.061 166.409C215.827 166.409 214.832 165.977 214.077 165.111C213.321 164.246 212.944 163.086 212.944 161.632C212.944 159.661 213.755 156.65 215.376 152.6C216.241 150.426 216.675 149.043 216.675 148.456C216.675 147.866 216.443 147.571 215.985 147.571C215.727 147.571 215.385 147.701 214.962 147.957C214.574 148.215 214.123 148.577 213.607 149.036C213.148 149.459 212.631 149.974 212.06 150.58C211.562 151.1 211.027 151.689 210.46 152.349L208.911 154.146C208.231 154.974 207.807 155.848 207.642 156.769C207.364 158.334 207.181 159.772 207.088 161.081C207.031 162.055 207.005 163.37 207.005 165.031L200.9 166.465C200.699 163.979 200.595 162.128 200.595 160.914C200.595 157.949 200.941 155.14 201.633 152.489C202.323 149.835 203.431 146.854 204.961 143.538L211.7 142.24C210.282 146.053 209.353 149.053 208.911 151.244C211.931 147.874 214.325 145.542 216.1 144.242C217.872 142.943 219.45 142.296 220.829 142.296C221.766 142.296 222.549 142.65 223.173 143.357C223.8 144.066 224.111 144.955 224.111 146.018C224.111 147.784 223.319 150.694 221.738 154.747C220.65 157.527 220.107 159.33 220.107 160.163C220.107 161.272 220.559 161.826 221.463 161.826C222.81 161.826 224.99 160.048 228 156.494V159.668Z" fill="#010101"/>
<path d="M140.524 128.723C140.568 129.211 140.69 129.585 140.89 129.845C141.259 130.316 141.898 130.552 142.808 130.552C143.35 130.552 143.827 130.435 144.239 130.202C144.65 129.964 144.856 129.598 144.856 129.105C144.856 128.731 144.691 128.447 144.361 128.252C144.149 128.133 143.732 127.995 143.109 127.837L141.947 127.545C141.204 127.361 140.657 127.155 140.305 126.927C139.677 126.532 139.362 125.984 139.362 125.285C139.362 124.462 139.658 123.795 140.248 123.286C140.844 122.777 141.643 122.522 142.646 122.522C143.957 122.522 144.902 122.907 145.482 123.676C145.845 124.164 146.021 124.689 146.01 125.253H144.629C144.602 124.922 144.485 124.622 144.279 124.351C143.943 123.966 143.361 123.774 142.532 123.774C141.979 123.774 141.559 123.879 141.272 124.091C140.99 124.302 140.85 124.581 140.85 124.928C140.85 125.307 141.036 125.611 141.41 125.838C141.627 125.974 141.947 126.093 142.369 126.196L143.337 126.431C144.388 126.686 145.092 126.933 145.45 127.171C146.019 127.545 146.303 128.133 146.303 128.935C146.303 129.709 146.008 130.379 145.417 130.942C144.832 131.506 143.938 131.787 142.735 131.787C141.44 131.787 140.522 131.495 139.98 130.91C139.444 130.319 139.156 129.59 139.118 128.723H140.524ZM151.334 122.498C152.314 122.498 153.111 122.736 153.723 123.213C154.341 123.69 154.712 124.511 154.837 125.676H153.414C153.328 125.139 153.13 124.695 152.821 124.343C152.512 123.985 152.016 123.806 151.334 123.806C150.402 123.806 149.735 124.261 149.334 125.172C149.074 125.762 148.944 126.491 148.944 127.358C148.944 128.23 149.129 128.964 149.497 129.56C149.865 130.156 150.445 130.454 151.236 130.454C151.843 130.454 152.323 130.27 152.675 129.902C153.032 129.528 153.279 129.019 153.414 128.374H154.837C154.674 129.528 154.268 130.373 153.618 130.91C152.967 131.441 152.136 131.706 151.122 131.706C149.985 131.706 149.077 131.292 148.4 130.463C147.723 129.628 147.384 128.588 147.384 127.342C147.384 125.814 147.755 124.624 148.497 123.774C149.24 122.923 150.185 122.498 151.334 122.498ZM156.3 122.79H157.787V131.454H156.3V122.79ZM156.3 119.515H157.787V121.173H156.3V119.515ZM159.973 119.515H161.379V126.448L165.134 122.75H167.003L163.671 126.009L167.19 131.454H165.321L162.606 127.065L161.379 128.187V131.454H159.973V119.515ZM168.328 122.79H169.815V131.454H168.328V122.79ZM168.328 119.515H169.815V121.173H168.328V119.515ZM172.327 120.32H173.806V122.75H175.196V123.944H173.806V129.625C173.806 129.929 173.909 130.132 174.115 130.235C174.228 130.295 174.418 130.324 174.683 130.324C174.754 130.324 174.83 130.324 174.911 130.324C174.992 130.319 175.087 130.311 175.196 130.3V131.454C175.028 131.503 174.851 131.538 174.667 131.56C174.488 131.581 174.293 131.592 174.082 131.592C173.399 131.592 172.936 131.419 172.692 131.072C172.448 130.72 172.327 130.265 172.327 129.707V123.944H171.148V122.75H172.327V120.32Z" fill="white"/>
</g>
<defs>
<clipPath id="clip0_983_177">
<rect width="200" height="107.86" fill="white" transform="translate(28 74)"/>
</clipPath>
</defs>
</svg>
